packages/ffe-icons/icons/filled/md/more_horiz.svg

<svg xmlns="http://www.w3.org/2000/svg" height="24" viewBox="0 -960 960 960" width="24"><path d="M249.231-420.001q-24.749 0-42.374-17.625-17.624-17.625-17.624-42.374 0-24.749 17.624-42.374 17.625-17.625 42.374-17.625 24.75 0 42.374 17.625Q309.23-504.749 309.23-480q0 24.749-17.625 42.374-17.624 17.625-42.374 17.625Zm230.769 0q-24.749 0-42.374-17.625-17.625-17.625-17.625-42.374 0-24.749 17.625-42.374 17.625-17.625 42.374-17.625 24.749 0 42.374 17.625 17.625 17.625 17.625 42.374 0 24.749-17.625 42.374-17.625 17.625-42.374 17.625Zm230.769 0q-24.75 0-42.374-17.625Q650.77-455.251 650.77-480q0-24.749 17.625-42.374 17.624-17.625 42.374-17.625 24.749 0 42.374 17.625 17.624 17.625 17.624 42.374 0 24.749-17.624 42.374-17.625 17.625-42.374 17.625Z"/></svg>

<svg xmlns="http://www.w3.org/2000/svg" height="24" viewBox="0 -960 960 960" width="24"><path d="M249.23-420q-24.75 0-42.37-17.63-17.63-17.62-17.63-42.37 0-24.75 17.63-42.37Q224.48-540 249.23-540q24.75 0 42.38 17.63 17.62 17.62 17.62 42.37 0 24.75-17.62 42.37Q273.98-420 249.23-420ZM480-420q-24.75 0-42.37-17.63Q420-455.25 420-480q0-24.75 17.63-42.37Q455.25-540 480-540q24.75 0 42.37 17.63Q540-504.75 540-480q0 24.75-17.63 42.37Q504.75-420 480-420Zm230.77 0q-24.75 0-42.38-17.63-17.62-17.62-17.62-42.37 0-24.75 17.62-42.37Q686.02-540 710.77-540q24.75 0 42.37 17.63 17.63 17.62 17.63 42.37 0 24.75-17.63 42.37Q735.52-420 710.77-420Z"/></svg>
